elusive/shopping-cart-sign.svg

<?xml version="1.0" encoding="UTF-8" standalone="no"?>
<!-- Generator: IcoMoon.io -->

<svg
   xmlns:dc="http://purl.org/dc/elements/1.1/"
   xmlns:cc="http://creativecommons.org/ns#"
   xmlns:rdf="http://www.w3.org/1999/02/22-rdf-syntax-ns#"
   xmlns:svg="http://www.w3.org/2000/svg"
   xmlns="http://www.w3.org/2000/svg"
   xmlns:sodipodi="http://sodipodi.sourceforge.net/DTD/sodipodi-0.dtd"
   xmlns:inkscape="http://www.inkscape.org/namespaces/inkscape"
   id="svg2"
   version="1.1"
   data-tags="remove-circle, cancel, close, remove, delete"
   height="1200"
   width="1200"
   data-du=""
   viewBox="0 0 1200 1200"
   inkscape:version="0.48.4 r9939"
   sodipodi:docname="shopping-cart-sign.svg">
  <defs
     id="defs32">
    <pattern
       id="pattern13199"
       width="811.3138"
       patternUnits="userSpaceOnUse"
       patternTransform="translate(-1692.9959,113.8855)"
       height="483.7205">
      <path
         id="path13201"
         filter="url(#filter3767)"
         d="M241.8603,83.1823H569.4535A158.678,158.678 0 0 1 728.1315,241.8603V241.8603A158.678,158.678 0 0 1 569.4535,400.5382H241.8603A158.678,158.678 0 0 1 83.1823,241.8603V241.8603A158.678,158.678 0 0 1 241.8603,83.1823" />
    </pattern>
    <mask
       id="mask13195"
       maskUnits="userSpaceOnUse">
      <path
         id="path13197"
         d="m -957.1864,582.2458 40.9492,-299.4407 -144.6017,-8.9576 -10.2373,67.822 -12.7966,11.5169 -8.9576,216.2627 -65.2627,-21.7542 14.0763,-270.0085 -74.2204,-6.3983 -11.5169,28.1525 -14.0763,225.2203 -42.2288,-8.9576 2.5593,-250.8136 -6.3983,0 -7.678,-70.3814 -33.2712,1.2797 -1.2796,29.4322 -7.678,17.9153 -2.5593,189.3898 -26.8729,33.2712 2.5593,88.2966 40.9492,19.1949 34.5508,-46.0678 284.0848,76.7797 49.9068,-21.7542"
         inkscape:connector-curvature="0"
         style="fill:#ffffff;stroke:#000000" />
    </mask>
    <filter
       id="filter13191"
       y="-0.26210001"
       x="-0.12899999"
       width="1.2579"
       height="1.5242"
       color-interpolation-filters="sRGB">
      <feGaussianBlur
         id="feGaussianBlur13193"
         stdDeviation="34.659" />
    </filter>
    <inkscape:path-effect
       id="path-effect13189" />
  </defs>
  <sodipodi:namedview
     pagecolor="#ffffff"
     bordercolor="#666666"
     borderopacity="1"
     objecttolerance="10"
     gridtolerance="10"
     guidetolerance="10"
     inkscape:pageopacity="0"
     inkscape:pageshadow="2"
     inkscape:window-width="1535"
     inkscape:window-height="876"
     id="namedview30"
     showgrid="false"
     inkscape:zoom="0.52678571"
     inkscape:cx="593.76445"
     inkscape:cy="629.17655"
     inkscape:window-x="65"
     inkscape:window-y="24"
     inkscape:window-maximized="1"
     inkscape:current-layer="svg2" />
  <metadata
     id="metadata62">
    <rdf:RDF>
      <cc:Work
         rdf:about="">
        <dc:format>image/svg+xml</dc:format>
        <dc:type
           rdf:resource="http://purl.org/dc/dcmitype/StillImage" />
        <dc:title />
      </cc:Work>
    </rdf:RDF>
  </metadata>
  <path
     id="path21059"
     d="M 600,0 C 268.62914,0 0,268.62914 0,600 c 0,331.37086 268.62914,600 600,600 331.37086,0 600,-268.62914 600,-600 C 1200,268.62914 931.37086,0 600,0 z m -302.41688,253.49109 106.78711,33.54493 c 14.13704,4.64296 23.55305,17.77101 25.19532,31.20117 l 6.00586,58.81359 483.54492,53.97938 c 20.76305,4.02351 35.35195,22.76859 32.4464,42.04101 l -30.02929,169.18945 c -3.82266,17.69696 -18.47977,29.82868 -34.79016,30.0293 l -429.56531,0 -8.42297,47.97375 407.95898,0 c 21.33211,0.75141 36.95696,16.99524 37.20704,35.96203 -0.88454,21.63703 -18.32579,35.79938 -37.20704,36.03516 l -451.17187,0 C 382.78594,790.3793 366.08016,772.34555 369.58008,750.2932 l 19.18945,-105.61523 -30.0293,-295.23938 -82.76367,-26.36718 c -9.6,-3.20039 -16.80633,-9.21797 -21.60656,-18.01758 -9.08133,-19.03172 -0.59859,-40.10344 15.60047,-49.21875 9.24609,-4.80727 18.2768,-5.4061 27.61219,-2.34375 z m 162.59766,559.49719 c 31.06594,0 56.25,25.18406 56.25,56.25 0,31.06594 -25.18406,56.25 -56.25,56.25 -31.06594,0 -56.25,-25.18406 -56.25,-56.25 0,-31.06594 25.18406,-56.25 56.25,-56.25 z m 330.17578,0 c 31.06594,0 56.25,25.18406 56.25,56.25 0,31.06594 -25.18406,56.25 -56.25,56.25 -31.06593,0 -56.25,-25.18406 -56.25,-56.25 0,-31.06594 25.18407,-56.25 56.25,-56.25 z"
     inkscape:connector-curvature="0" />
</svg>

<?xml version="1.0" encoding="utf-8"?>
<!-- Generator: Adobe Illustrator 13.0.0, SVG Export Plug-In . SVG Version: 6.00 Build 14948)  -->
<!DOCTYPE svg PUBLIC "-//W3C//DTD SVG 1.1//EN" "http://www.w3.org/Graphics/SVG/1.1/DTD/svg11.dtd">
<svg version="1.1"
	 id="svg2" inkscape:version="0.48.4 r9939" sodipodi:docname="shopping-cart-sign.svg" xmlns:dc="http://purl.org/dc/elements/1.1/" xmlns:cc="http://creativecommons.org/ns#" xmlns:rdf="http://www.w3.org/1999/02/22-rdf-syntax-ns#" xmlns:svg="http://www.w3.org/2000/svg" xmlns:sodipodi="http://sodipodi.sourceforge.net/DTD/sodipodi-0.dtd" xmlns:inkscape="http://www.inkscape.org/namespaces/inkscape"
	 xmlns="http://www.w3.org/2000/svg" xmlns:xlink="http://www.w3.org/1999/xlink" x="0px" y="0px" width="1200px" height="1200px"
	 viewBox="0 0 1200 1200" enable-background="new 0 0 1200 1200" xml:space="preserve">
<path id="path21059" inkscape:connector-curvature="0" d="M600,0C268.629,0,0,268.629,0,600s268.629,600,600,600
	s600-268.629,600-600S931.371,0,600,0z M297.583,253.491l106.787,33.545c14.137,4.643,23.553,17.771,25.195,31.201l6.006,58.813
	l483.545,53.979c20.763,4.023,35.353,22.769,32.446,42.041l-30.029,169.189c-3.822,17.697-18.479,29.828-34.79,30.029H457.178
	l-8.423,47.974h407.959c21.332,0.751,36.957,16.995,37.207,35.962c-0.885,21.637-18.325,35.8-37.207,36.035H405.542
	c-22.756-1.882-39.462-19.915-35.962-41.968l19.189-105.615L358.74,349.438l-82.764-26.367c-9.6-3.2-16.806-9.218-21.606-18.018
	c-9.082-19.032-0.599-40.104,15.601-49.219C279.217,251.028,288.247,250.429,297.583,253.491L297.583,253.491z M460.181,812.988
	c31.066,0,56.25,25.184,56.25,56.25s-25.184,56.25-56.25,56.25c-31.065,0-56.25-25.184-56.25-56.25S429.115,812.988,460.181,812.988
	z M790.356,812.988c31.066,0,56.25,25.184,56.25,56.25s-25.184,56.25-56.25,56.25c-31.065,0-56.25-25.184-56.25-56.25
	S759.291,812.988,790.356,812.988z"/>
</svg>
